
;FLAVOR:Marlin
;TIME:0
;Filament used: 0m
;Layer height: 0
;MINX:0
;MINY:0
;MINZ:0
;MAXX:220
;MAXY:220
;MAXZ:250

; Time to print!!!!!
; GCode created with FullControl - tell us what you're printing!
; info@fullcontrol.xyz or tag FullControlXYZ on Twitter/Instagram/LinkedIn/Reddit/TikTok 

G28 ; home axes
M140 S60 ; set bed temp and continue
M105
M104 S210 ; set hotend temp and continue
M190 S60 ; set bed temp and wait
M105
M109 S210  ; set hotend temp and wait
G90 ; absolute coordinates
G21 ; set units to millimeters
M83 ; relative extrusion
M106 S255 ; set fan speed
M220 S100 ; set speed factor override percentage
M221 S100 ; set extrude factor override percentage
G0 F8000 X5.0 Y5.0 Z10.0
G1 F250 E20.7876
G0 F250 Z50.0
G0 F8000 X10.0 Y10.0 Z0.3
;-----
; END OF STARTING PROCEDURE
;-----

;-----
; START OF PRIMER PROCEDURE
;-----
G0 F8000 Y12.0 Z0.2
G1 F1000 X110.0 E4.157517
G1 Y14.0 E0.08315
G1 X10.0 E4.157517
G1 Y16.0 E0.08315
G1 X63.5 E2.224272
G1 Y51.5 E1.475918
;-----
; END OF PRIMER PROCEDURE
;-----

G1 F1000 Y50.0 E0.062363
G1 Y48.5 E0.062363
G1 Y47.0 E0.062363
G1 X62.0 E0.062363
G1 Y48.5 E0.062363
G1 Y50.0 E0.062363
G1 X60.5 E0.062363
G1 Y48.5 E0.062363
G1 Y47.0 E0.062363
G1 X59.0 E0.062363
G1 X57.5 E0.062363
G1 Y45.5 E0.062363
G1 Y44.0 E0.062363
G1 Y42.5 E0.062363
G1 X59.0 E0.062363
G1 Y41.0 E0.062363
G1 X57.5 E0.062363
G1 X56.0 E0.062363
G1 Y42.5 E0.062363
G1 Y44.0 E0.062363
G1 X54.5 E0.062363
G1 Y42.5 E0.062363
G1 Y41.0 E0.062363
G1 X53.0 E0.062363
G1 Y42.5 E0.062363
G1 Y44.0 E0.062363
G1 Y45.5 E0.062363
G1 X54.5 E0.062363
G1 X56.0 E0.062363
G1 Y47.0 E0.062363
G1 X54.5 E0.062363
G1 Y48.5 E0.062363
G1 X56.0 E0.062363
G1 X57.5 E0.062363
G1 X59.0 E0.062363
G1 Y50.0 E0.062363
G1 X57.5 E0.062363
G1 X56.0 E0.062363
G1 X54.5 E0.062363
G1 X53.0 E0.062363
G1 Y48.5 E0.062363
G1 X51.5 E0.062363
G1 Y47.0 E0.062363
G1 Y45.5 E0.062363
G1 Y44.0 E0.062363
G1 X50.0 E0.062363
G1 Y45.5 E0.062363
G1 Y47.0 E0.062363
G1 Y48.5 E0.062363
G1 X48.5 E0.062363
G1 Y47.0 E0.062363
G1 Y45.5 E0.062363
G1 X47.0 E0.062363
G1 Y47.0 E0.062363
G1 Y48.5 E0.062363
G1 X45.5 E0.062363
G1 Y47.0 E0.062363
G1 X44.0 E0.062363
G1 Y48.5 E0.062363
G1 X42.5 E0.062363
G1 Y50.0 E0.062363
G1 X44.0 E0.062363
G1 X45.5 E0.062363
G1 X47.0 E0.062363
G1 X48.5 E0.062363
G1 X50.0 E0.062363
G1 X51.5 E0.062363
G1 Y51.5 E0.062363
G1 X53.0 E0.062363
G1 X54.5 E0.062363
G1 X56.0 E0.062363
G1 X57.5 E0.062363
G1 X59.0 E0.062363
G1 X60.5 E0.062363
G1 X62.0 E0.062363
G1 Y53.0 E0.062363
G1 X60.5 E0.062363
G1 X59.0 E0.062363
G1 X57.5 E0.062363
G1 X56.0 E0.062363
G1 X54.5 E0.062363
G1 Y54.5 E0.062363
G1 X56.0 E0.062363
G1 X57.5 E0.062363
G1 Y56.0 E0.062363
G1 X59.0 E0.062363
G1 Y54.5 E0.062363
G1 X60.5 E0.062363
G1 X62.0 E0.062363
G1 Y56.0 E0.062363
G1 X60.5 E0.062363
G1 Y57.5 E0.062363
G1 X62.0 E0.062363
G1 Y59.0 E0.062363
G1 X60.5 E0.062363
G1 X59.0 E0.062363
G1 Y57.5 E0.062363
G1 X57.5 E0.062363
G1 Y59.0 E0.062363
G1 X56.0 E0.062363
G1 Y57.5 E0.062363
G1 Y56.0 E0.062363
G1 X54.5 E0.062363
G1 Y57.5 E0.062363
G1 Y59.0 E0.062363
G1 X53.0 E0.062363
G1 Y57.5 E0.062363
G1 Y56.0 E0.062363
G1 Y54.5 E0.062363
G1 Y53.0 E0.062363
G1 X51.5 E0.062363
G1 Y54.5 E0.062363
G1 X50.0 E0.062363
G1 Y53.0 E0.062363
G1 Y51.5 E0.062363
G1 X48.5 E0.062363
G1 Y53.0 E0.062363
G1 X47.0 E0.062363
G1 Y51.5 E0.062363
G1 X45.5 E0.062363
G1 Y53.0 E0.062363
G1 Y54.5 E0.062363
G1 X47.0 E0.062363
G1 X48.5 E0.062363
G1 Y56.0 E0.062363
G1 X50.0 E0.062363
G1 X51.5 E0.062363
G1 Y57.5 E0.062363
G1 X50.0 E0.062363
G1 X48.5 E0.062363
G1 X47.0 E0.062363
G1 Y56.0 E0.062363
G1 X45.5 E0.062363
G1 Y57.5 E0.062363
G1 Y59.0 E0.062363
G1 X44.0 E0.062363
G1 X42.5 E0.062363
G1 Y57.5 E0.062363
G1 Y56.0 E0.062363
G1 Y54.5 E0.062363
G1 X41.0 E0.062363
G1 Y53.0 E0.062363
G1 Y51.5 E0.062363
G1 X39.5 E0.062363
G1 X38.0 E0.062363
G1 Y53.0 E0.062363
G1 X39.5 E0.062363
G1 Y54.5 E0.062363
G1 X38.0 E0.062363
G1 Y56.0 E0.062363
G1 X39.5 E0.062363
G1 X41.0 E0.062363
G1 Y57.5 E0.062363
G1 Y59.0 E0.062363
G1 X39.5 E0.062363
G1 Y57.5 E0.062363
G1 X38.0 E0.062363
G1 Y59.0 E0.062363
G1 X36.5 E0.062363
G1 Y60.5 E0.062363
G1 X38.0 E0.062363
G1 X39.5 E0.062363
G1 Y62.0 E0.062363
G1 X41.0 E0.062363
G1 Y60.5 E0.062363
G1 X42.5 E0.062363
G1 X44.0 E0.062363
G1 X45.5 E0.062363
G1 X47.0 E0.062363
G1 Y59.0 E0.062363
G1 X48.5 E0.062363
G1 X50.0 E0.062363
G1 X51.5 E0.062363
G1 Y60.5 E0.062363
G1 X53.0 E0.062363
G1 X54.5 E0.062363
G1 X56.0 E0.062363
G1 X57.5 E0.062363
G1 X59.0 E0.062363
G1 X60.5 E0.062363
G1 X62.0 E0.062363
G1 X63.5 E0.062363
G1 X65.0 E0.062363
G1 Y62.0 E0.062363
G1 X63.5 E0.062363
G1 X62.0 E0.062363
G1 X60.5 E0.062363
G1 X59.0 E0.062363
G1 Y63.5 E0.062363
G1 Y65.0 E0.062363
G1 X60.5 E0.062363
G1 Y63.5 E0.062363
G1 X62.0 E0.062363
G1 Y65.0 E0.062363
G1 X63.5 E0.062363
G1 Y63.5 E0.062363
G1 X65.0 E0.062363
G1 X66.5 E0.062363
G1 X68.0 E0.062363
G1 X69.5 E0.062363
G1 Y65.0 E0.062363
G1 Y66.5 E0.062363
G1 X71.0 E0.062363
G1 Y68.0 E0.062363
G1 X69.5 E0.062363
G1 X68.0 E0.062363
G1 Y66.5 E0.062363
G1 X66.5 E0.062363
G1 Y65.0 E0.062363
G1 X65.0 E0.062363
G1 Y66.5 E0.062363
G1 X63.5 E0.062363
G1 X62.0 E0.062363
G1 X60.5 E0.062363
G1 Y68.0 E0.062363
G1 X62.0 E0.062363
G1 X63.5 E0.062363
G1 Y69.5 E0.062363
G1 X65.0 E0.062363
G1 Y68.0 E0.062363
G1 X66.5 E0.062363
G1 Y69.5 E0.062363
G1 Y71.0 E0.062363
G1 X65.0 E0.062363
G1 Y72.5 E0.062363
G1 Y74.0 E0.062363
G1 X66.5 E0.062363
G1 Y72.5 E0.062363
G1 X68.0 E0.062363
G1 Y71.0 E0.062363
G1 Y69.5 E0.062363
G1 X69.5 E0.062363
G1 X71.0 E0.062363
G1 Y71.0 E0.062363
G1 X72.5 E0.062363
G1 Y72.5 E0.062363
G1 Y74.0 E0.062363
G1 X71.0 E0.062363
G1 Y72.5 E0.062363
G1 X69.5 E0.062363
G1 Y74.0 E0.062363
G1 X68.0 E0.062363
G1 Y75.5 E0.062363
G1 X69.5 E0.062363
G1 X71.0 E0.062363
G1 X72.5 E0.062363
G1 Y77.0 E0.062363
G1 X71.0 E0.062363
G1 X69.5 E0.062363
G1 X68.0 E0.062363
G1 X66.5 E0.062363
G1 Y75.5 E0.062363
G1 X65.0 E0.062363
G1 Y77.0 E0.062363
G1 X63.5 E0.062363
G1 Y75.5 E0.062363
G1 Y74.0 E0.062363
G1 Y72.5 E0.062363
G1 Y71.0 E0.062363
G1 X62.0 E0.062363
G1 Y69.5 E0.062363
G1 X60.5 E0.062363
G1 Y71.0 E0.062363
G1 Y72.5 E0.062363
G1 X62.0 E0.062363
G1 Y74.0 E0.062363
G1 X60.5 E0.062363
G1 Y75.5 E0.062363
G1 X62.0 E0.062363
G1 Y77.0 E0.062363
G1 X60.5 E0.062363
G1 X59.0 E0.062363
G1 Y75.5 E0.062363
G1 Y74.0 E0.062363
G1 Y72.5 E0.062363
G1 Y71.0 E0.062363
G1 Y69.5 E0.062363
G1 Y68.0 E0.062363
G1 X57.5 E0.062363
G1 Y66.5 E0.062363
G1 Y65.0 E0.062363
G1 Y63.5 E0.062363
G1 Y62.0 E0.062363
G1 X56.0 E0.062363
G1 Y63.5 E0.062363
G1 Y65.0 E0.062363
G1 Y66.5 E0.062363
G1 Y68.0 E0.062363
G1 Y69.5 E0.062363
G1 X57.5 E0.062363
G1 Y71.0 E0.062363
G1 X56.0 E0.062363
G1 X54.5 E0.062363
G1 Y69.5 E0.062363
G1 Y68.0 E0.062363
G1 Y66.5 E0.062363
G1 Y65.0 E0.062363
G1 Y63.5 E0.062363
G1 Y62.0 E0.062363
G1 X53.0 E0.062363
G1 Y63.5 E0.062363
G1 Y65.0 E0.062363
G1 X51.5 E0.062363
G1 Y66.5 E0.062363
G1 X53.0 E0.062363
G1 Y68.0 E0.062363
G1 X51.5 E0.062363
G1 X50.0 E0.062363
G1 Y66.5 E0.062363
G1 Y65.0 E0.062363
G1 Y63.5 E0.062363
G1 X51.5 E0.062363
G1 Y62.0 E0.062363
G1 X50.0 E0.062363
G1 Y60.5 E0.062363
G1 X48.5 E0.062363
G1 Y62.0 E0.062363
G1 Y63.5 E0.062363
G1 X47.0 E0.062363
G1 Y62.0 E0.062363
G1 X45.5 E0.062363
G1 X44.0 E0.062363
G1 X42.5 E0.062363
G1 Y63.5 E0.062363
G1 X44.0 E0.062363
G1 X45.5 E0.062363
G1 Y65.0 E0.062363
G1 X47.0 E0.062363
G1 X48.5 E0.062363
G1 Y66.5 E0.062363
G1 X47.0 E0.062363
G1 X45.5 E0.062363
G1 Y68.0 E0.062363
G1 X47.0 E0.062363
G1 X48.5 E0.062363
G1 Y69.5 E0.062363
G1 X47.0 E0.062363
G1 X45.5 E0.062363
G1 X44.0 E0.062363
G1 Y68.0 E0.062363
G1 X42.5 E0.062363
G1 X41.0 E0.062363
G1 Y66.5 E0.062363
G1 X42.5 E0.062363
G1 Y65.0 E0.062363
G1 X41.0 E0.062363
G1 Y63.5 E0.062363
G1 X39.5 E0.062363
G1 X38.0 E0.062363
G1 Y62.0 E0.062363
G1 X36.5 E0.062363
G1 X35.0 E0.062363
G1 X33.5 E0.062363
G1 Y63.5 E0.062363
G1 X35.0 E0.062363
G1 X36.5 E0.062363
G1 Y65.0 E0.062363
G1 X35.0 E0.062363
G1 X33.5 E0.062363
G1 X32.0 E0.062363
G1 Y66.5 E0.062363
G1 X33.5 E0.062363
G1 X35.0 E0.062363
G1 X36.5 E0.062363
G1 X38.0 E0.062363
G1 Y65.0 E0.062363
G1 X39.5 E0.062363
G1 Y66.5 E0.062363
G1 Y68.0 E0.062363
G1 X38.0 E0.062363
G1 X36.5 E0.062363
G1 X35.0 E0.062363
G1 Y69.5 E0.062363
G1 X36.5 E0.062363
G1 X38.0 E0.062363
G1 X39.5 E0.062363
G1 X41.0 E0.062363
G1 X42.5 E0.062363
G1 Y71.0 E0.062363
G1 Y72.5 E0.062363
G1 X44.0 E0.062363
G1 Y71.0 E0.062363
G1 X45.5 E0.062363
G1 X47.0 E0.062363
G1 X48.5 E0.062363
G1 X50.0 E0.062363
G1 Y69.5 E0.062363
G1 X51.5 E0.062363
G1 X53.0 E0.062363
G1 Y71.0 E0.062363
G1 X51.5 E0.062363
G1 Y72.5 E0.062363
G1 X50.0 E0.062363
G1 X48.5 E0.062363
G1 Y74.0 E0.062363
G1 X50.0 E0.062363
G1 Y75.5 E0.062363
G1 X51.5 E0.062363
G1 Y74.0 E0.062363
G1 X53.0 E0.062363
G1 Y72.5 E0.062363
G1 X54.5 E0.062363
G1 X56.0 E0.062363
G1 X57.5 E0.062363
G1 Y74.0 E0.062363
G1 Y75.5 E0.062363
G1 X56.0 E0.062363
G1 Y74.0 E0.062363
G1 X54.5 E0.062363
G1 Y75.5 E0.062363
G1 X53.0 E0.062363
G1 Y77.0 E0.062363
G1 X51.5 E0.062363
G1 Y78.5 E0.062363
G1 X50.0 E0.062363
G1 Y80.0 E0.062363
G1 X48.5 E0.062363
G1 Y78.5 E0.062363
G1 Y77.0 E0.062363
G1 Y75.5 E0.062363
G1 X47.0 E0.062363
G1 Y74.0 E0.062363
G1 Y72.5 E0.062363
G1 X45.5 E0.062363
G1 Y74.0 E0.062363
G1 Y75.5 E0.062363
G1 Y77.0 E0.062363
G1 X47.0 E0.062363
G1 Y78.5 E0.062363
G1 Y80.0 E0.062363
G1 X45.5 E0.062363
G1 Y78.5 E0.062363
G1 X44.0 E0.062363
G1 Y77.0 E0.062363
G1 Y75.5 E0.062363
G1 Y74.0 E0.062363
G1 X42.5 E0.062363
G1 X41.0 E0.062363
G1 Y72.5 E0.062363
G1 Y71.0 E0.062363
G1 X39.5 E0.062363
G1 Y72.5 E0.062363
G1 X38.0 E0.062363
G1 X36.5 E0.062363
G1 Y71.0 E0.062363
G1 X35.0 E0.062363
G1 X33.5 E0.062363
G1 Y69.5 E0.062363
G1 X32.0 E0.062363
G1 Y71.0 E0.062363
G1 X30.5 E0.062363
G1 Y72.5 E0.062363
G1 X29.0 E0.062363
G1 Y74.0 E0.062363
G1 X30.5 E0.062363
G1 X32.0 E0.062363
G1 Y72.5 E0.062363
G1 X33.5 E0.062363
G1 X35.0 E0.062363
G1 Y74.0 E0.062363
G1 X36.5 E0.062363
G1 Y75.5 E0.062363
G1 X38.0 E0.062363
G1 Y74.0 E0.062363
G1 X39.5 E0.062363
G1 Y75.5 E0.062363
G1 X41.0 E0.062363
G1 X42.5 E0.062363
G1 Y77.0 E0.062363
G1 X41.0 E0.062363
G1 X39.5 E0.062363
G1 X38.0 E0.062363
G1 X36.5 E0.062363
G1 X35.0 E0.062363
G1 Y75.5 E0.062363
G1 X33.5 E0.062363
G1 Y77.0 E0.062363
G1 X32.0 E0.062363
G1 Y78.5 E0.062363
G1 Y80.0 E0.062363
G1 X30.5 E0.062363
G1 Y81.5 E0.062363
G1 X32.0 E0.062363
G1 X33.5 E0.062363
G1 X35.0 E0.062363
G1 Y80.0 E0.062363
G1 X33.5 E0.062363
G1 Y78.5 E0.062363
G1 X35.0 E0.062363
G1 X36.5 E0.062363
G1 X38.0 E0.062363
G1 X39.5 E0.062363
G1 Y80.0 E0.062363
G1 X38.0 E0.062363
G1 X36.5 E0.062363
G1 Y81.5 E0.062363
G1 X38.0 E0.062363
G1 X39.5 E0.062363
G1 X41.0 E0.062363
G1 Y80.0 E0.062363
G1 Y78.5 E0.062363
G1 X42.5 E0.062363
G1 Y80.0 E0.062363
G1 X44.0 E0.062363
G1 Y81.5 E0.062363
G1 X45.5 E0.062363
G1 X47.0 E0.062363
G1 X48.5 E0.062363
G1 X50.0 E0.062363
G1 Y83.0 E0.062363
G1 X48.5 E0.062363
G1 X47.0 E0.062363
G1 X45.5 E0.062363
G1 X44.0 E0.062363
G1 X42.5 E0.062363
G1 X41.0 E0.062363
G1 Y84.5 E0.062363
G1 X42.5 E0.062363
G1 Y86.0 E0.062363
G1 X44.0 E0.062363
G1 Y84.5 E0.062363
G1 X45.5 E0.062363
G1 Y86.0 E0.062363
G1 X47.0 E0.062363
G1 Y84.5 E0.062363
G1 X48.5 E0.062363
G1 X50.0 E0.062363
G1 Y86.0 E0.062363
G1 Y87.5 E0.062363
G1 X48.5 E0.062363
G1 X47.0 E0.062363
G1 Y89.0 E0.062363
G1 X45.5 E0.062363
G1 Y87.5 E0.062363
G1 X44.0 E0.062363
G1 Y89.0 E0.062363
G1 X42.5 E0.062363
G1 Y87.5 E0.062363
G1 X41.0 E0.062363
G1 X39.5 E0.062363
G1 Y86.0 E0.062363
G1 Y84.5 E0.062363
G1 Y83.0 E0.062363
G1 X38.0 E0.062363
G1 X36.5 E0.062363
G1 X35.0 E0.062363
G1 X33.5 E0.062363
G1 Y84.5 E0.062363
G1 X35.0 E0.062363
G1 X36.5 E0.062363
G1 X38.0 E0.062363
G1 Y86.0 E0.062363
G1 X36.5 E0.062363
G1 X35.0 E0.062363
G1 X33.5 E0.062363
G1 X32.0 E0.062363
G1 X30.5 E0.062363
G1 Y87.5 E0.062363
G1 X32.0 E0.062363
G1 X33.5 E0.062363
G1 X35.0 E0.062363
G1 X36.5 E0.062363
G1 X38.0 E0.062363
G1 Y89.0 E0.062363
G1 X39.5 E0.062363
G1 X41.0 E0.062363
G1 Y90.5 E0.062363
G1 X42.5 E0.062363
G1 Y92.0 E0.062363
G1 X41.0 E0.062363
G1 X39.5 E0.062363
G1 Y90.5 E0.062363
G1 X38.0 E0.062363
G1 Y92.0 E0.062363
G1 X36.5 E0.062363
G1 Y90.5 E0.062363
G1 Y89.0 E0.062363
G1 X35.0 E0.062363
G1 X33.5 E0.062363
G1 Y90.5 E0.062363
G1 X35.0 E0.062363
G1 Y92.0 E0.062363
G1 X33.5 E0.062363
G1 X32.0 E0.062363
G1 Y90.5 E0.062363
G1 Y89.0 E0.062363
G1 X30.5 E0.062363
G1 Y90.5 E0.062363
G1 Y92.0 E0.062363
G1 Y93.5 E0.062363
G1 Y95.0 E0.062363
G1 X32.0 E0.062363
G1 Y93.5 E0.062363
G1 X33.5 E0.062363
G1 X35.0 E0.062363
G1 Y95.0 E0.062363
G1 Y96.5 E0.062363
G1 X33.5 E0.062363
G1 Y98.0 E0.062363
G1 X35.0 E0.062363
G1 X36.5 E0.062363
G1 Y96.5 E0.062363
G1 X38.0 E0.062363
G1 Y95.0 E0.062363
G1 X36.5 E0.062363
G1 Y93.5 E0.062363
G1 X38.0 E0.062363
G1 X39.5 E0.062363
G1 X41.0 E0.062363
G1 X42.5 E0.062363
G1 Y95.0 E0.062363
G1 X41.0 E0.062363
G1 X39.5 E0.062363
G1 Y96.5 E0.062363
G1 X41.0 E0.062363
G1 Y98.0 E0.062363
G1 X39.5 E0.062363
G1 X38.0 E0.062363
G1 Y99.5 E0.062363
G1 X39.5 E0.062363
G1 Y101.0 E0.062363
G1 X38.0 E0.062363
G1 X36.5 E0.062363
G1 Y99.5 E0.062363
G1 X35.0 E0.062363
G1 Y101.0 E0.062363
G1 X33.5 E0.062363
G1 Y102.5 E0.062363
G1 X35.0 E0.062363
G1 Y104.0 E0.062363
G1 X36.5 E0.062363
G1 Y102.5 E0.062363
G1 X38.0 E0.062363
G1 X39.5 E0.062363
G1 Y104.0 E0.062363
G1 X41.0 E0.062363
G1 Y102.5 E0.062363
G1 Y101.0 E0.062363
G1 Y99.5 E0.062363
G1 X42.5 E0.062363
G1 Y101.0 E0.062363
G1 X44.0 E0.062363
G1 Y99.5 E0.062363
G1 Y98.0 E0.062363
G1 X42.5 E0.062363
G1 Y96.5 E0.062363
G1 X44.0 E0.062363
G1 X45.5 E0.062363
G1 Y95.0 E0.062363
G1 X44.0 E0.062363
G1 Y93.5 E0.062363
G1 Y92.0 E0.062363
G1 Y90.5 E0.062363
G1 X45.5 E0.062363
G1 X47.0 E0.062363
G1 Y92.0 E0.062363
G1 X45.5 E0.062363
G1 Y93.5 E0.062363
G1 X47.0 E0.062363
G1 Y95.0 E0.062363
G1 X48.5 E0.062363
G1 Y96.5 E0.062363
G1 X47.0 E0.062363
G1 Y98.0 E0.062363
G1 X48.5 E0.062363
G1 X50.0 E0.062363
G1 Y96.5 E0.062363
G1 Y95.0 E0.062363
G1 Y93.5 E0.062363
G1 X48.5 E0.062363
G1 Y92.0 E0.062363
G1 Y90.5 E0.062363
G1 Y89.0 E0.062363
G1 X50.0 E0.062363
G1 Y90.5 E0.062363
G1 X51.5 E0.062363
G1 Y92.0 E0.062363
G1 Y93.5 E0.062363
G1 Y95.0 E0.062363
G1 X53.0 E0.062363
G1 Y93.5 E0.062363
G1 Y92.0 E0.062363
G1 Y90.5 E0.062363
G1 Y89.0 E0.062363
G1 X51.5 E0.062363
G1 Y87.5 E0.062363
G1 Y86.0 E0.062363
G1 Y84.5 E0.062363
G1 Y83.0 E0.062363
G1 X53.0 E0.062363
G1 Y81.5 E0.062363
G1 X51.5 E0.062363
G1 Y80.0 E0.062363
G1 X53.0 E0.062363
G1 Y78.5 E0.062363
G1 X54.5 E0.062363
G1 Y77.0 E0.062363
G1 X56.0 E0.062363
G1 X57.5 E0.062363
G1 Y78.5 E0.062363
G1 X59.0 E0.062363
G1 X60.5 E0.062363
G1 X62.0 E0.062363
G1 Y80.0 E0.062363
G1 X60.5 E0.062363
G1 X59.0 E0.062363
G1 X57.5 E0.062363
G1 X56.0 E0.062363
G1 X54.5 E0.062363
G1 Y81.5 E0.062363
G1 Y83.0 E0.062363
G1 X56.0 E0.062363
G1 Y81.5 E0.062363
G1 X57.5 E0.062363
G1 Y83.0 E0.062363
G1 X59.0 E0.062363
G1 Y81.5 E0.062363
G1 X60.5 E0.062363
G1 X62.0 E0.062363
G1 Y83.0 E0.062363
G1 Y84.5 E0.062363
G1 X63.5 E0.062363
G1 Y83.0 E0.062363
G1 Y81.5 E0.062363
G1 Y80.0 E0.062363
G1 Y78.5 E0.062363
G1 X65.0 E0.062363
G1 Y80.0 E0.062363
G1 Y81.5 E0.062363
G1 X66.5 E0.062363
G1 Y80.0 E0.062363
G1 Y78.5 E0.062363
G1 X68.0 E0.062363
G1 X69.5 E0.062363
G1 Y80.0 E0.062363
G1 X68.0 E0.062363
G1 Y81.5 E0.062363
G1 X69.5 E0.062363
G1 X71.0 E0.062363
G1 Y80.0 E0.062363
G1 Y78.5 E0.062363
G1 X72.5 E0.062363
G1 X74.0 E0.062363
G1 X75.5 E0.062363
G1 Y80.0 E0.062363
G1 X74.0 E0.062363
G1 X72.5 E0.062363
G1 Y81.5 E0.062363
G1 X74.0 E0.062363
G1 X75.5 E0.062363
G1 X77.0 E0.062363
G1 X78.5 E0.062363
G1 Y83.0 E0.062363
G1 X77.0 E0.062363
G1 X75.5 E0.062363
G1 X74.0 E0.062363
G1 X72.5 E0.062363
G1 Y84.5 E0.062363
G1 X74.0 E0.062363
G1 X75.5 E0.062363
G1 X77.0 E0.062363
G1 X78.5 E0.062363
G1 X80.0 E0.062363
G1 Y83.0 E0.062363
G1 X81.5 E0.062363
G1 Y84.5 E0.062363
G1 X83.0 E0.062363
G1 Y83.0 E0.062363
G1 X84.5 E0.062363
G1 Y84.5 E0.062363
G1 X86.0 E0.062363
G1 X87.5 E0.062363
G1 Y86.0 E0.062363
G1 X86.0 E0.062363
G1 Y87.5 E0.062363
G1 X87.5 E0.062363
G1 Y89.0 E0.062363
G1 X86.0 E0.062363
G1 X84.5 E0.062363
G1 Y87.5 E0.062363
G1 Y86.0 E0.062363
G1 X83.0 E0.062363
G1 Y87.5 E0.062363
G1 X81.5 E0.062363
G1 Y86.0 E0.062363
G1 X80.0 E0.062363
G1 X78.5 E0.062363
